X:1
T:The Quebec Donkey
L:1/8
Q:1/4=110
M:2/4
K:Gmaj
|: z4 | z4 | z4 | z4 |
z4 | z4 | z4 | z4 ::
"C"G>B c z |"C" z3 G |"Am" c z/ c/ z2 |"Am" c z/ c/ z2 |
"C"G>B d z |"C" z3 d |"G" B2"D" A2 |"Em" G2 G2 ::
"G"z4 |"G" z3 f |"C" cd d z |"D" ed d z |
"G"z4 |"G" z3 f |"C" e2"D" d2 |"Em" G3 z ::
"C"E z"G/B" G z |"Am7" EF"Em/G" G z |"Am7" c z/ c/ z2 |"Bm7" d z/ d/ z2 |
"C"E z"G7/B" F z |"Am7" EF"G" G z |"Cmaj7" G z"Bm7" F z |"Em" G2 G2 ::

